svg/vscode-codicons/comment-unresolved.svg

<svg width="16" height="16" viewBox="0 0 16 16" xmlns="http://www.w3.org/2000/svg" fill="currentColor"><path fill-rule="evenodd" clip-rule="evenodd" d="M1.5 2H14.5L15 2.5V9.35418C14.714 9.03018 14.3764 8.75287 14 8.53513V3H2V11H4.5L5 11.5V13.293L7.146 11.146L7.5 11H8.12602C8.04375 11.3196 8 11.6547 8 12H7.707L4.854 14.854L4 14.5V12H1.5L1 11.5V2.5L1.5 2Z"/><path d="M12 9C11.4067 9 10.8266 9.17595 10.3333 9.50559C9.83994 9.83524 9.45543 10.3038 9.22836 10.8519C9.0013 11.4001 8.94189 12.0033 9.05765 12.5853C9.1734 13.1672 9.45912 13.7018 9.87868 14.1213C10.2982 14.5409 10.8328 14.8266 11.4147 14.9424C11.9967 15.0581 12.5999 14.9987 13.1481 14.7716C13.6962 14.5446 14.1648 14.1601 14.4944 13.6667C14.8241 13.1734 15 12.5933 15 12C14.999 11.2047 14.6826 10.4422 14.1202 9.87976C13.5578 9.31736 12.7954 9.00098 12 9Z"/></svg>

<svg xmlns="http://www.w3.org/2000/svg" width="16" height="16" viewBox="0 0 16 16"><path fill-rule="evenodd" d="M1.5 2h13l.5.5v6.854a4.019 4.019 0 0 0-1-.819V3H2v8h2.5l.5.5v1.793l2.146-2.147L7.5 11h.626c-.082.32-.126.655-.126 1h-.293l-2.853 2.854L4 14.5V12H1.5l-.5-.5v-9l.5-.5Z" clip-rule="evenodd"/><path d="M12 9a3 3 0 1 0 0 6 3 3 0 0 0 0-6Z"/></svg>
